X: 46
T: the BLACK NAG
B: FIFTY OLD ENGLISH FOLK DANCE AIRS", Edgar H. Hunt ed., Schott & Co. Ltd. pub., London 1939
Z: 2004-2014 John Chambers <jc:trillian.mit.edu>
M: 6/8
L: 1/8
K: Am
E |\
(A>B)A (B>A)B | (c>B)c Bcd |\
(e>d)c (B>A)B | A3- A2 :|\
|: A |\
BGE BGE | BGE BGE |
ecA ecA | ecA ecA |\
BGE BGE | BGE B2c/d/ |\
(e>d)c (B>A)B | A3- A2 :|

%%sep 1 1 500
%%sep 1 1 500
